img/beard-polar.svg

<svg width="63" height="78" viewBox="0 0 63 78" fill="none" xmlns="http://www.w3.org/2000/svg">
	<path d="M63 41.7378C63 36.5603 60.6072 34.0163 59.3654 31.8002C56.9946 26.2361 55.5623 20.3284 55.125 14.3101C55.0543 9.43076 53.4187 1.98751 52.2173 0C51.3389 0 50.6827 7.73143 49.9154 11.5673C48.4716 18.5236 46.1091 20.4416 45.4327 20.5111C44.6654 17.7187 41.2832 13.1971 31.6212 12.8294H31.5H31.3687C21.7168 13.1872 18.3245 17.7187 17.5673 20.5111C16.8808 20.4416 14.5385 18.5236 13.0846 11.5673C12.3173 7.73143 11.651 0 10.7827 0C9.58125 1.98751 7.94567 9.43076 7.875 14.3101C7.42776 20.3269 5.99585 26.233 3.63461 31.8002C2.39279 34.0163 0 36.5603 0 41.7378C0 45.4545 5.25 48.8929 5.69423 53.0666C5.81538 54.279 5.69423 55.402 5.81538 56.4057C7.83461 73.7765 23.8572 78 31.5 78C39.1428 78 55.1654 73.7765 57.1846 56.4057C57.3361 55.4119 57.1846 54.279 57.3058 53.0666C57.75 48.8929 63 45.4644 63 41.7378ZM33.5596 26.5929C32.1897 26.4638 30.8103 26.4638 29.4404 26.5929C27.6937 26.9308 23.625 27.5867 23.625 25.5197C23.625 24.4564 30.4096 23.244 31.5 23.244C32.5904 23.244 39.375 24.4564 39.375 25.5197C39.375 27.5768 35.3365 26.9308 33.5596 26.5929Z" fill="#826550" />
</svg>

<svg width="63" height="78" fill="none" xmlns="http://www.w3.org/2000/svg"><path d="M63 41.738c0-5.178-2.393-7.722-3.635-9.938a54.731 54.731 0 01-4.24-17.49C55.055 9.43 53.419 1.988 52.217 0c-.878 0-1.534 7.731-2.302 11.567-1.443 6.957-3.806 8.875-4.482 8.944-.768-2.792-4.15-7.314-13.812-7.682h-.252c-9.652.358-13.044 4.89-13.802 7.682-.686-.07-3.028-1.987-4.482-8.944C12.317 7.731 11.65 0 10.783 0 9.58 1.988 7.946 9.43 7.875 14.31a55.282 55.282 0 01-4.24 17.49C2.393 34.016 0 36.56 0 41.738c0 3.717 5.25 7.155 5.694 11.329.121 1.212 0 2.335.121 3.339C7.835 73.776 23.857 78 31.5 78c7.643 0 23.665-4.224 25.685-21.594.151-.994 0-2.127.12-3.34C57.75 48.894 63 45.465 63 41.739zM33.56 26.593a21.81 21.81 0 00-4.12 0c-1.746.338-5.815.994-5.815-1.073 0-1.064 6.785-2.276 7.875-2.276 1.09 0 7.875 1.212 7.875 2.276 0 2.057-4.038 1.41-5.815 1.073z" fill="#826550"/></svg>
